X:1
T:O God, to mee take heede
T:Edmund Hooper
T:Source : The Whole Book of psalms---London---Th.Est(e)---1592 Editor : André Vierendeels (13/09/16).
T:O God, to mee take heede (Ps 70)
T:b
T:©
C:Edmund Hooper
Z:©
%%score [ 1 2 3 4 ]
L:1/8
Q:1/4=119
M:2/2
K:F
V:1 treble nm="Soprano" snm="S"
V:2 treble nm="Alto" snm="A"
V:3 treble-8 nm="Tenor" snm="T"
V:4 bass nm="Bass" snm="B"
V:1
 D2 G4 G2 | ^F2 F2 G4 || B2 A4 G2 | ^F2 G2 F4 || z2 A2 c2 c2 | d4 d2 d2- | d2 c2 d4 | %7
w: O God, to|mee take heede,|of help I|thee re- quire:|O Lord, of|hosts with hast|_ make speede,|
 z2 d2 c2 =B2 | c2 A2 !fermata!=B4 |] %9
w: help, help I|thee de- sire.|
V:2
 B,2 _E4 C2 | D2 D2 =B,4 || D2 F4 D2 | D2 C2 D4 ||"^-natural" z2 F2 _E2 C2 | F4 G2 ^F2- | %6
w: O God, to|mee take heede,|of help I|thee re- quire:|O Lord, of|hosts with hast|
 F2 G2 ^F4 |"^-natural" z2 F2 E2 D2 | E2 D2 !fermata!D4 |] %9
w: _ make speede,|help, help I|thee de- sire.|
V:3
 G2 B4 G2 | A2 A2 G4 || G2 c4 B2 | A2 G2 A4 || z2 F2 G2 A2 | B4 B2 A2- | A2 G2 A4 | z2 D2 E2 G2 | %8
w: O God, to|mee take heede,|of help I|thee re- quire:|O Lord, of|hosts with hast|_ make speede,|help, help I|
 G2 ^F2 !fermata!G4 |] %9
w: thee de- sire.|
V:4
 G,2 _E,4 E,2 | D,2 D,2 G,,4 || G,2 F,4 G,2 | D,2 _E,2 D,4 || z2 D,2 C,2 F,2 | B,,4 G,,2 D,2- | %6
w: O God, to|mee take heede,|of help I|thee re- quire:|O Lord, of|hosts with hast|
 D,2 _E,2 D,4 | z2 B,,2 C,2 G,,2 | C,2 D,2 !fermata!G,,4 |] %9
w: _ make speede,|help, help I|thee de- sire.|

